picto/covered-car-park.svg

<svg class="color-immutable" width="24" height="24" viewBox="0 0 24 24" fill="none" xmlns="http://www.w3.org/2000/svg"><g clip-path="url(#a)"><path d="M0 22.5v-21C0 .675.675 0 1.5 0h21c.825 0 1.5.675 1.5 1.5v21c0 .825-.675 1.5-1.5 1.5h-21C.675 24 0 23.325 0 22.5Z" fill="#2D327D"/><path d="M21 12.488V11.25l-9-4.125-9 4.125v1.238l9-4.125 9 4.125Z" fill="#fff"/><path d="M9.038 11.325h3.904c.657 0 1.175.041 1.552.122.377.082.718.226 1.022.433.843.565 1.264 1.416 1.264 2.554 0 1.01-.349 1.804-1.046 2.382a2.728 2.728 0 0 1-1.012.533c-.379.108-.847.162-1.403.162h-2.171V21h-2.11v-9.675Zm2.111 1.787v2.74h1.886c.56 0 .964-.099 1.211-.298.304-.247.457-.611.457-1.092 0-.485-.177-.847-.529-1.085-.256-.176-.673-.265-1.251-.265h-1.774Z" fill="#fff"/></g><defs><clipPath id="a"><path fill="#fff" d="M0 0h24v24H0z"/></clipPath></defs></svg>

<svg class="color-immutable" width="24" height="24" viewBox="0 0 24 24" fill="none" xmlns="http://www.w3.org/2000/svg"><path d="M0 22.5V1.5C0 0.675 0.675 0 1.5 0H22.5C23.325 0 24 0.675 24 1.5V22.5C24 23.325 23.325 24 22.5 24H1.5C0.675 24 0 23.325 0 22.5Z" fill="#2D327D"/><path d="M21 12.488V11.25L12 7.125L3 11.25V12.488L12 8.363L21 12.488Z" fill="white"/><path d="M9.03799 11.325H12.942C13.599 11.325 14.117 11.366 14.494 11.447C14.871 11.529 15.212 11.673 15.516 11.88C16.359 12.445 16.78 13.296 16.78 14.434C16.78 15.444 16.431 16.238 15.734 16.816C15.438 17.063 15.101 17.241 14.722 17.349C14.343 17.457 13.875 17.511 13.319 17.511H11.148V21H9.03799V11.325ZM11.149 13.112V15.852H13.035C13.595 15.852 13.999 15.753 14.246 15.554C14.55 15.307 14.703 14.943 14.703 14.462C14.703 13.977 14.526 13.615 14.174 13.377C13.918 13.201 13.501 13.112 12.923 13.112H11.149Z" fill="white"/></svg>
